; generated by PrusaSlicer 2.1.0+ on 2019-12-19 at 18:16:14 UTC

; 

; external perimeters extrusion width = 0.45mm
; perimeters extrusion width = 0.45mm
; infill extrusion width = 0.45mm
; solid infill extrusion width = 0.45mm
; top infill extrusion width = 0.40mm
; first layer extrusion width = 0.42mm

M73 P0 R4
M73 Q0 S4
M201 X1000 Y1000 Z1000 E5000 ; sets maximum accelerations, mm/sec^2
M203 X200 Y200 Z12 E120 ; sets maximum feedrates, mm/sec
M204 P1250 R1250 T1250 ; sets acceleration (P, T) and retract acceleration (R), mm/sec^2
M205 X8.00 Y8.00 Z0.40 E1.50 ; sets the jerk limits, mm/sec
M205 S0 T0 ; sets the minimum extruding and travel feed rate, mm/sec
M107
M862.3 P "MK3S" ; printer model check
M862.1 P0.4 ; nozzle diameter check
M115 U3.8.1 ; tell printer latest fw version
G90 ; use absolute coordinates
M83 ; extruder relative mode
M104 S215 ; set extruder temp
M140 S60 ; set bed temp
M190 S60 ; wait for bed temp
M109 S215 ; wait for extruder temp
G28 W ; home all without mesh bed level
G80 ; mesh bed leveling
G1 Y-3.0 F1000.0 ; go outside print area
G92 E0.0
G1 X60.0 E9.0 F1000.0 ; intro line
M73 Q1 S4
M73 P1 R4
G1 X100.0 E12.5 F1000.0 ; intro line
G92 E0.0
M221 S95
G21 ; set units to millimeters
G90 ; use absolute coordinates
M83 ; use relative distances for extrusion
M900 K30 ; Filament gcode
;BEFORE_LAYER_CHANGE
G92 E0.0
;0.2


G1 E-0.80000 F2100.00000
G1 Z0.600 F10800.000
;AFTER_LAYER_CHANGE
;0.2
G1 X112.643 Y88.988
G1 Z0.200
G1 E0.80000 F2100.00000
M204 S1000
G1 F1200
G1 X113.003 Y88.389 E0.02189
G1 X113.514 Y87.908 E0.02202
G1 X114.133 Y87.585 E0.02189
G1 X114.820 Y87.441 E0.02202
G1 X135.004 Y87.434 E0.63284
G1 X135.954 Y87.618 E0.03034
G1 X136.768 Y88.141 E0.03034
G1 X137.331 Y88.928 E0.03034
G1 X137.562 Y89.872 E0.03046
G1 X137.543 Y110.745 E0.65447
G1 X137.312 Y112.498 E0.05543
G1 X136.950 Y113.887 E0.04501
G1 X136.406 Y115.269 E0.04657
G1 X135.524 Y116.858 E0.05699
G1 X134.674 Y118.019 E0.04511
G1 X133.609 Y119.153 E0.04875
G1 X132.253 Y120.256 E0.05482
G1 X131.043 Y121.017 E0.04482
G1 X129.628 Y121.682 E0.04902
G1 X127.967 Y122.206 E0.05461
G1 X126.561 Y122.468 E0.04484
G1 X124.991 Y122.566 E0.04931
G1 X123.436 Y122.468 E0.04887
G1 X122.025 Y122.205 E0.04499
G1 X120.308 Y121.656 E0.05654
G1 X118.938 Y121.007 E0.04751
G1 X117.610 Y120.162 E0.04936
G1 X116.398 Y119.160 E0.04931
G1 X115.320 Y118.011 E0.04938
G1 X114.392 Y116.735 E0.04948
G1 X113.635 Y115.361 E0.04919
G1 X113.053 Y113.894 E0.04948
G1 X112.680 Y112.462 E0.04641
G1 X112.467 Y110.882 E0.04998
G1 X112.434 Y110.003 E0.02759
G1 X112.435 Y89.972 E0.62803
G1 X112.630 Y89.046 E0.02968
G1 X112.992 Y89.129 F10800.000
G1 F1200
G1 X113.305 Y88.616 E0.01885
G1 X113.745 Y88.207 E0.01885
G1 X114.280 Y87.933 E0.01885
G1 X114.870 Y87.815 E0.01885
G1 X135.004 Y87.811 E0.63128
G1 X135.820 Y87.971 E0.02608
G1 X136.521 Y88.426 E0.02620
G1 X136.998 Y89.107 E0.02608
G1 X137.187 Y89.917 E0.02608
G1 X137.166 Y110.727 E0.65247
G1 X136.945 Y112.410 E0.05322
G1 X136.591 Y113.771 E0.04410
G1 X136.054 Y115.132 E0.04588
G1 X135.218 Y116.638 E0.05401
G1 X134.386 Y117.776 E0.04419
G1 X133.348 Y118.881 E0.04755
G1 X132.051 Y119.938 E0.05244
G1 X130.865 Y120.685 E0.04395
G1 X129.485 Y121.333 E0.04780
G1 X128.041 Y121.803 E0.04763
G1 X126.662 Y122.071 E0.04402
G1 X124.992 Y122.189 E0.05252
G1 X123.482 Y122.093 E0.04743
G1 X122.096 Y121.835 E0.04419
G1 X120.448 Y121.306 E0.05428
G1 X119.123 Y120.678 E0.04595
G1 X117.831 Y119.857 E0.04800
G1 X116.656 Y118.884 E0.04784
G1 X115.610 Y117.771 E0.04790
G1 X114.710 Y116.532 E0.04799
G1 X113.974 Y115.196 E0.04784
G1 X113.410 Y113.773 E0.04800
G1 X113.045 Y112.368 E0.04550
G1 X112.842 Y110.843 E0.04823
G1 X112.811 Y110.004 E0.02634
G1 X112.812 Y89.982 E0.62778
G1 X112.980 Y89.188 E0.02544
G1 F8640
G1 X113.305 Y88.616 E-0.15194
G1 X113.745 Y88.207 E-0.13881
G1 X114.280 Y87.933 E-0.13881
G1 X114.870 Y87.815 E-0.13881
G1 X115.700 Y87.815 E-0.19164
G1 E-0.04000 F2100.00000
G1 Z0.800 F10800.000
G1 X118.310 Y109.414
G1 Z0.200
G1 E0.80000 F2100.00000
G1 F1200
G1 X131.690 Y109.414 E0.41953
G1 X131.274 Y112.038 E0.08330
G1 X130.337 Y113.876 E0.06471
G1 X128.877 Y115.336 E0.06471
G1 X127.039 Y116.273 E0.06472
G1 X125.000 Y116.595 E0.06471
G1 X122.961 Y116.273 E0.06471
G1 X121.123 Y115.336 E0.06472
G1 X119.663 Y113.876 E0.06471
G1 X118.726 Y112.038 E0.06471
G1 X118.319 Y109.473 E0.08142
G1 X118.751 Y109.791 F10800.000
G1 F1200
G1 X131.249 Y109.791 E0.39184
G1 X130.911 Y111.920 E0.06758
G1 X130.028 Y113.652 E0.06097
G1 X128.653 Y115.027 E0.06097
G1 X126.921 Y115.910 E0.06097
G1 X125.000 Y116.214 E0.06097
G1 X123.079 Y115.910 E0.06097
G1 X121.347 Y115.027 E0.06097
G1 X119.972 Y113.652 E0.06097
G1 X119.089 Y111.920 E0.06097
G1 X118.761 Y109.850 E0.06570
G1 X118.711 Y109.393 F10800.000
G1 F8640
G1 X122.052 Y109.835 E-0.76000
G1 E-0.04000 F2100.00000
G1 Z0.800 F10800.000
G1 X115.587 Y90.587
G1 Z0.200
G1 E0.80000 F2100.00000
G1 F1200
G1 X134.413 Y90.587 E0.59027
G1 X134.413 Y109.413 E0.59027
G1 X134.393 Y109.413 E0.00063
G1 X134.393 Y110.591 E0.03694
G1 X134.245 Y111.764 E0.03706
G1 X133.952 Y112.908 E0.03704
G1 X133.516 Y114.007 E0.03707
G1 X132.946 Y115.043 E0.03705
G1 X132.252 Y115.999 E0.03706
G1 X131.442 Y116.861 E0.03708
G1 X130.532 Y117.614 E0.03704
G1 X129.535 Y118.248 E0.03705
G1 X128.464 Y118.751 E0.03708
G1 X127.341 Y119.116 E0.03705
G1 X126.179 Y119.337 E0.03707
G1 X125.000 Y119.412 E0.03705
G1 X123.821 Y119.337 E0.03705
G1 X122.659 Y119.116 E0.03707
G1 X121.536 Y118.751 E0.03705
G1 X120.465 Y118.248 E0.03708
G1 X119.468 Y117.614 E0.03705
G1 X118.558 Y116.861 E0.03704
G1 X117.748 Y115.999 E0.03708
G1 X117.054 Y115.043 E0.03706
G1 X116.484 Y114.007 E0.03705
G1 X116.048 Y112.908 E0.03707
G1 X115.755 Y111.764 E0.03704
G1 X115.607 Y110.591 E0.03706
G1 X115.607 Y109.413 E0.03694
G1 X115.587 Y109.413 E0.00063
G1 X115.587 Y90.647 E0.58839
G1 X115.210 Y90.210 F10800.000
G1 F1200
G1 X134.790 Y90.210 E0.61392
G1 X134.790 Y109.790 E0.61392
G1 X134.770 Y109.790 E0.00063
G1 X134.770 Y110.615 E0.02586
G1 X134.616 Y111.835 E0.03855
G1 X134.311 Y113.025 E0.03853
G1 X133.858 Y114.168 E0.03856
G1 X133.265 Y115.245 E0.03854
G1 X132.543 Y116.240 E0.03855
G1 X131.701 Y117.137 E0.03857
G1 X130.754 Y117.920 E0.03852
G1 X129.717 Y118.579 E0.03854
G1 X128.604 Y119.102 E0.03857
G1 X127.435 Y119.482 E0.03853
G1 X126.227 Y119.712 E0.03856
G1 X125.000 Y119.790 E0.03854
G1 X123.773 Y119.712 E0.03854
G1 X122.565 Y119.482 E0.03856
G1 X121.396 Y119.102 E0.03853
G1 X120.283 Y118.579 E0.03857
G1 X119.246 Y117.920 E0.03854
G1 X118.299 Y117.137 E0.03852
G1 X117.457 Y116.240 E0.03857
G1 X116.735 Y115.245 E0.03855
G1 X116.142 Y114.168 E0.03854
G1 X115.689 Y113.025 E0.03856
G1 X115.384 Y111.835 E0.03853
G1 X115.230 Y110.615 E0.03855
G1 X115.230 Y109.790 E0.02586
G1 X115.210 Y109.790 E0.00063
G1 X115.210 Y90.270 E0.61204
G1 X115.556 Y90.410 F10800.000
G1 F8640
G1 X118.501 Y90.260 E-0.76000
G1 E-0.04000 F2100.00000
G1 Z0.800 F10800.000
G1 X134.300 Y91.467
G1 Z0.200
G1 E0.80000 F2100.00000
G1 F1200
G1 X133.703 Y90.870 E0.02659
G1 X133.167 Y90.870 E0.01689
G1 X134.130 Y91.833 E0.04292
G1 X134.130 Y92.369 E0.01689
G1 X132.631 Y90.870 E0.06681
G1 X132.095 Y90.870 E0.01689
G1 X134.130 Y92.905 E0.09069
G1 X134.130 Y93.441 E0.01689
G1 X131.559 Y90.870 E0.11458
G1 X131.023 Y90.870 E0.01689
G1 X134.130 Y93.977 E0.13847
G1 X134.130 Y94.513 E0.01689
G1 X130.487 Y90.870 E0.16236
G1 X129.951 Y90.870 E0.01689
G1 X134.130 Y95.049 E0.18625
G1 X134.130 Y95.585 E0.01689
G1 X129.415 Y90.870 E0.21013
G1 X128.879 Y90.870 E0.01689
G1 X134.130 Y96.121 E0.23402
G1 X134.130 Y96.657 E0.01689
G1 X128.343 Y90.870 E0.25791
G1 X127.807 Y90.870 E0.01689
G1 X134.130 Y97.193 E0.28180
G1 X134.130 Y97.729 E0.01689
G1 X127.271 Y90.870 E0.30569
G1 X126.735 Y90.870 E0.01689
G1 X134.130 Y98.265 E0.32957
G1 X134.130 Y98.801 E0.01689
G1 X126.199 Y90.870 E0.35346
G1 X125.663 Y90.870 E0.01689
G1 X134.130 Y99.337 E0.37735
G1 X134.130 Y99.873 E0.01689
G1 X125.127 Y90.870 E0.40124
G1 X124.591 Y90.870 E0.01689
G1 X134.130 Y100.409 E0.42513
G1 X134.130 Y100.945 E0.01689
G1 X124.055 Y90.870 E0.44901
G1 X123.519 Y90.870 E0.01689
G1 X134.130 Y101.481 E0.47290
G1 X134.130 Y102.017 E0.01689
G1 X122.983 Y90.870 E0.49679
G1 X122.447 Y90.870 E0.01689
G1 X134.130 Y102.553 E0.52068
G1 X134.130 Y103.089 E0.01689
G1 X121.911 Y90.870 E0.54456
G1 X121.375 Y90.870 E0.01689
G1 X134.130 Y103.625 E0.56845
G1 X134.130 Y104.161 E0.01689
G1 X120.839 Y90.870 E0.59234
G1 X120.303 Y90.870 E0.01689
G1 X134.130 Y104.697 E0.61623
G1 X134.130 Y105.233 E0.01689
G1 X119.767 Y90.870 E0.64012
G1 X119.231 Y90.870 E0.01689
G1 X134.130 Y105.769 E0.66400
G1 X134.130 Y106.305 E0.01689
G1 X118.695 Y90.870 E0.68789
G1 X118.159 Y90.870 E0.01689
G1 X134.130 Y106.841 E0.71178
G1 X134.130 Y107.377 E0.01689
G1 X117.623 Y90.870 E0.73567
G1 X117.087 Y90.870 E0.01689
G1 X134.130 Y107.913 E0.75956
G1 X134.130 Y108.449 E0.01689
G1 X116.551 Y90.870 E0.78344
G1 X116.015 Y90.870 E0.01689
G1 X134.130 Y108.985 E0.80733
G1 X134.130 Y109.130 E0.00459
G1 X134.110 Y109.130 E0.00063
G1 X134.110 Y109.501 E0.01167
G1 X115.870 Y91.260 E0.81293
G1 X115.870 Y91.796 E0.01689
G1 X134.110 Y110.037 E0.81293
G1 X134.110 Y110.573 E0.01689
G1 X115.870 Y92.332 E0.81293
G1 X115.870 Y92.868 E0.01689
G1 X134.050 Y111.049 E0.81026
G1 X133.990 Y111.525 E0.01512
G1 X131.963 Y109.498 E0.09034
G1 X131.890 Y109.960 E0.01476
G1 X133.900 Y111.971 E0.08960
G1 X133.791 Y112.397 E0.01388
G1 X131.817 Y110.423 E0.08799
G1 X131.743 Y110.886 E0.01476
G1 X133.681 Y112.823 E0.08636
G1 X133.529 Y113.207 E0.01301
G1 X131.670 Y111.348 E0.08285
G1 X131.597 Y111.811 E0.01476
G1 X133.377 Y113.591 E0.07934
G1 X133.259 Y113.887 E0.01002
G1 X133.216 Y113.966 E0.00286
G1 X131.489 Y112.239 E0.07696
G1 X131.308 Y112.594 E0.01256
G1 X133.026 Y114.312 E0.07655
G1 X132.835 Y114.658 E0.01244
G1 X131.127 Y112.949 E0.07614
G1 X130.946 Y113.304 E0.01256
G1 X132.634 Y114.992 E0.07522
G1 X132.408 Y115.302 E0.01209
G1 X130.765 Y113.659 E0.07323
G1 X130.584 Y114.014 E0.01256
G1 X132.183 Y115.613 E0.07125
G1 X131.946 Y115.912 E0.01202
G1 X130.323 Y114.290 E0.07230
G1 X130.055 Y114.558 E0.01194
G1 X131.686 Y116.188 E0.07267
G1 X131.427 Y116.465 E0.01195
G1 X129.787 Y114.826 E0.07305
G1 X129.519 Y115.094 E0.01194
G1 X131.156 Y116.731 E0.07296
G1 X130.863 Y116.973 E0.01200
G1 X129.251 Y115.362 E0.07183
G1 X129.046 Y115.567 E0.00917
G1 X128.963 Y115.609 E0.00292
M73 Q23 S3
G1 X130.570 Y117.216 E0.07160
G1 X130.266 Y117.448 E0.01205
G1 X128.608 Y115.790 E0.07388
G1 X128.253 Y115.971 E0.01256
G1 X129.938 Y117.656 E0.07509
M73 P23 R3
G1 X129.610 Y117.864 E0.01224
G1 X127.898 Y116.152 E0.07630
G1 X127.543 Y116.333 E0.01256
G1 X129.270 Y118.060 E0.07694
G1 X128.905 Y118.231 E0.01269
G1 X127.188 Y116.514 E0.07651
G1 X127.127 Y116.546 E0.00216
G1 X126.744 Y116.606 E0.01222
G1 X128.541 Y118.403 E0.08007
G1 X128.360 Y118.488 E0.00628
G1 X128.156 Y118.554 E0.00677
G1 X126.281 Y116.679 E0.08355
G1 X125.818 Y116.752 E0.01477
G1 X127.751 Y118.685 E0.08615
G1 X127.347 Y118.817 E0.01340
G1 X125.355 Y116.826 E0.08875
G1 X125.000 Y116.882 E0.01134
G1 X124.852 Y116.858 E0.00472
G1 X126.905 Y118.911 E0.09150
G1 X126.455 Y118.997 E0.01444
G1 X124.216 Y116.758 E0.09980
G1 X123.579 Y116.657 E0.02031
G1 X125.988 Y119.066 E0.10736
G1 X125.484 Y119.098 E0.01592
G1 X122.604 Y116.218 E0.12835
G1 X121.899 Y116.049 F10800.000
G1 F1200
G1 X124.977 Y119.127 E0.13717
G1 X124.405 Y119.091 E0.01806
G1 X115.890 Y110.576 E0.37948
G1 X115.968 Y111.190 E0.01948
G1 X123.829 Y119.051 E0.35037
G1 X123.167 Y118.925 E0.02124
G1 X116.061 Y111.819 E0.31670
G1 X116.246 Y112.540 E0.02346
G1 X122.460 Y118.754 E0.27695
G1 X121.666 Y118.496 E0.02631
G1 X116.533 Y113.363 E0.22877
G1 X116.741 Y113.887 E0.01775
G1 X117.009 Y114.375 E0.01758
G1 X121.015 Y118.381 E0.17853
G1 F8640
G1 X118.688 Y116.054 E-0.76000
G1 E-0.04000 F2100.00000
G1 Z0.800 F10800.000
G1 X119.770 Y117.672
G1 Z0.200
G1 E0.80000 F2100.00000
G1 F1200
G1 X117.333 Y115.235 E0.10860
G1 F8640
G1 X119.661 Y117.563 E-0.76000
G1 E-0.04000 F2100.00000
G1 Z0.800 F10800.000
G1 X118.950 Y113.100
G1 Z0.200
G1 E0.80000 F2100.00000
G1 F1200
G1 X115.890 Y110.040 E0.13638
G1 X115.890 Y109.504 E0.01689
G1 X118.442 Y112.056 E0.11376
G1 X118.341 Y111.420 E0.02032
G1 X115.870 Y108.948 E0.11015
G1 X115.870 Y108.412 E0.01689
G1 X118.240 Y110.783 E0.10565
G1 X118.140 Y110.146 E0.02032
G1 X115.870 Y107.876 E0.10115
G1 X115.870 Y107.340 E0.01689
G1 X118.039 Y109.509 E0.09665
G1 X117.979 Y109.131 E0.01205
G1 X118.197 Y109.131 E0.00688
G1 X115.870 Y106.804 E0.10371
G1 X115.870 Y106.268 E0.01689
G1 X118.733 Y109.131 E0.12760
G1 X119.269 Y109.131 E0.01689
G1 X115.870 Y105.732 E0.15149
G1 X115.870 Y105.196 E0.01689
G1 X119.805 Y109.131 E0.17538
G1 X120.341 Y109.131 E0.01689
G1 X115.870 Y104.660 E0.19927
G1 X115.870 Y104.124 E0.01689
G1 X120.877 Y109.131 E0.22315
G1 X121.413 Y109.131 E0.01689
G1 X115.870 Y103.588 E0.24704
G1 X115.870 Y103.052 E0.01689
G1 X121.949 Y109.131 E0.27093
G1 X122.485 Y109.131 E0.01689
G1 X115.870 Y102.516 E0.29482
G1 X115.870 Y101.980 E0.01689
G1 X123.021 Y109.131 E0.31871
G1 X123.557 Y109.131 E0.01689
G1 X115.870 Y101.444 E0.34259
G1 X115.870 Y100.908 E0.01689
G1 X124.093 Y109.131 E0.36648
G1 X124.629 Y109.131 E0.01689
G1 X115.870 Y100.372 E0.39037
G1 X115.870 Y99.836 E0.01689
G1 X125.165 Y109.131 E0.41426
G1 X125.701 Y109.131 E0.01689
G1 X115.870 Y99.300 E0.43815
G1 X115.870 Y98.764 E0.01689
G1 X126.237 Y109.131 E0.46203
G1 X126.773 Y109.131 E0.01689
G1 X115.870 Y98.228 E0.48592
G1 X115.870 Y97.692 E0.01689
G1 X127.309 Y109.131 E0.50981
G1 X127.845 Y109.131 E0.01689
G1 X115.870 Y97.156 E0.53370
G1 X115.870 Y96.620 E0.01689
G1 X128.381 Y109.131 E0.55759
G1 X128.917 Y109.131 E0.01689
G1 X115.870 Y96.084 E0.58147
G1 X115.870 Y95.548 E0.01689
G1 X129.453 Y109.131 E0.60536
G1 X129.989 Y109.131 E0.01689
G1 X115.870 Y95.012 E0.62925
G1 X115.870 Y94.476 E0.01689
G1 X130.525 Y109.131 E0.65314
G1 X131.061 Y109.131 E0.01689
G1 X115.870 Y93.940 E0.67703
G1 X115.870 Y93.404 E0.01689
G1 X131.766 Y109.301 E0.70848
M106 S255
;BEFORE_LAYER_CHANGE
G92 E0.0
;0.4


G1 F8640
G1 X129.439 Y106.973 E-0.76000
G1 E-0.04000 F2100.00000
G1 Z0.800 F10800.000
;AFTER_LAYER_CHANGE
;0.4
G1 X137.331 Y88.928
G1 Z0.400
G1 E0.80000 F2100.00000
G1 F3000
G1 X137.562 Y89.872 E0.03046
G1 X137.543 Y110.745 E0.65447
G1 X137.312 Y112.498 E0.05543
G1 X136.950 Y113.887 E0.04501
G1 X136.406 Y115.269 E0.04657
G1 X135.524 Y116.858 E0.05699
G1 X134.674 Y118.019 E0.04511
G1 X133.609 Y119.153 E0.04875
G1 X132.253 Y120.256 E0.05482
G1 X131.043 Y121.017 E0.04482
G1 X129.628 Y121.682 E0.04902
G1 X127.967 Y122.206 E0.05461
G1 X126.561 Y122.468 E0.04484
G1 X124.991 Y122.566 E0.04931
G1 X123.436 Y122.468 E0.04887
G1 X122.025 Y122.205 E0.04499
G1 X120.308 Y121.656 E0.05654
G1 X118.938 Y121.007 E0.04751
G1 X117.610 Y120.162 E0.04936
G1 X116.398 Y119.160 E0.04931
G1 X115.320 Y118.011 E0.04938
G1 X114.392 Y116.735 E0.04948
G1 X113.635 Y115.361 E0.04919
G1 X113.053 Y113.894 E0.04948
G1 X112.680 Y112.462 E0.04641
G1 X112.467 Y110.882 E0.04998
G1 X112.434 Y110.003 E0.02759
G1 X112.435 Y89.972 E0.62803
G1 X112.643 Y88.988 E0.03156
G1 X113.003 Y88.389 E0.02189
G1 X113.514 Y87.908 E0.02202
G1 X114.133 Y87.585 E0.02189
G1 X114.820 Y87.441 E0.02202
G1 X135.004 Y87.434 E0.63284
G1 X135.954 Y87.618 E0.03034
G1 X136.768 Y88.141 E0.03034
G1 X137.296 Y88.879 E0.02846
G1 F8640
G1 X137.562 Y89.872 E-0.23725
G1 X137.560 Y92.136 E-0.52275
G1 E-0.04000 F2100.00000
G1 Z1.000 F10800.000
G1 X131.743 Y109.369
G1 Z0.400
G1 E0.80000 F2100.00000
M204 S800
G1 F1500
G1 X131.318 Y112.052 E0.09195
G1 X130.374 Y113.903 E0.07034
G1 X128.904 Y115.373 E0.07034
G1 X127.053 Y116.317 E0.07035
G1 X125.000 Y116.641 E0.07034
G1 X122.947 Y116.317 E0.07034
G1 X121.096 Y115.373 E0.07035
G1 X119.626 Y113.903 E0.07034
G1 X118.682 Y112.052 E0.07034
G1 X118.257 Y109.369 E0.09195
G1 X131.683 Y109.369 E0.45444
M204 S1000
G1 X131.266 Y109.776 F10800.000
M204 S800
G1 F1500
G1 X130.926 Y111.924 E0.07363
G1 X130.040 Y113.661 E0.06598
G1 X128.662 Y115.039 E0.06598
G1 X126.925 Y115.925 E0.06598
