; generated by PrusaSlicer 2.1.0+ on 2019-12-12 at 18:04:27 UTC

; 

; external perimeters extrusion width = 0.45mm
; perimeters extrusion width = 0.45mm
; infill extrusion width = 0.45mm
; solid infill extrusion width = 0.45mm
; top infill extrusion width = 0.40mm
; first layer extrusion width = 0.42mm

M73 P0 R76
M73 Q0 S76
M201 X1000 Y1000 Z1000 E5000 ; sets maximum accelerations, mm/sec^2
M203 X200 Y200 Z12 E120 ; sets maximum feedrates, mm/sec
M204 P1250 R1250 T1250 ; sets acceleration (P, T) and retract acceleration (R), mm/sec^2
M205 X8.00 Y8.00 Z0.40 E1.50 ; sets the jerk limits, mm/sec
M205 S0 T0 ; sets the minimum extruding and travel feed rate, mm/sec
M107
M862.3 P "MK3S" ; printer model check
M862.1 P0.4 ; nozzle diameter check
M115 U3.8.1 ; tell printer latest fw version
G90 ; use absolute coordinates
M83 ; extruder relative mode
M104 S215 ; set extruder temp
M140 S60 ; set bed temp
M190 S60 ; wait for bed temp
M109 S215 ; wait for extruder temp
G28 W ; home all without mesh bed level
G80 ; mesh bed leveling
G1 Y-3.0 F1000.0 ; go outside print area
G92 E0.0
G1 X60.0 E9.0 F1000.0 ; intro line
M73 Q0 S76
M73 P0 R76
G1 X100.0 E12.5 F1000.0 ; intro line
G92 E0.0
M221 S95
G21 ; set units to millimeters
G90 ; use absolute coordinates
M83 ; use relative distances for extrusion
M900 K30 ; Filament gcode
;BEFORE_LAYER_CHANGE
G92 E0.0
;0.2


G1 E-0.80000 F2100.00000
G1 Z0.600 F10800.000
;AFTER_LAYER_CHANGE
;0.2
G1 X101.659 Y84.225
G1 Z0.200
G1 E0.80000 F2100.00000
M204 S1000
G1 F1200
G1 X104.103 Y81.752 E0.10902
G1 X104.606 Y81.390 E0.01942
G1 X107.730 Y79.828 E0.10952
G1 X111.202 Y79.249 E0.11038
G1 X138.504 Y79.228 E0.85602
G1 X142.275 Y79.829 E0.11974
G1 X145.745 Y81.618 E0.12240
G1 X148.386 Y84.288 E0.11776
G1 X150.924 Y88.803 E0.16239
G1 X151.129 Y89.337 E0.01794
G1 X151.189 Y89.841 E0.01589
G1 X151.188 Y127.082 E1.16768
G1 X150.998 Y128.229 E0.03647
G1 X150.449 Y129.285 E0.03730
G1 X149.763 Y129.991 E0.03086
G1 X149.133 Y130.399 E0.02355
G1 X148.430 Y130.670 E0.02359
G1 X147.458 Y130.809 E0.03079
G1 X102.542 Y130.809 E1.40832
G1 X101.395 Y130.619 E0.03646
G1 X100.335 Y130.070 E0.03743
G1 X99.633 Y129.389 E0.03065
G1 X99.228 Y128.768 E0.02324
G1 X98.955 Y128.068 E0.02356
G1 X98.813 Y127.130 E0.02976
G1 X98.812 Y89.784 E1.17096
G1 X98.881 Y89.300 E0.01532
G1 X99.053 Y88.847 E0.01521
G1 X101.630 Y84.278 E0.16447
G1 F8640
G1 X103.933 Y81.926 E-0.76000
G1 E-0.04000 F2100.00000
G1 Z0.800 F10800.000
G1 X128.932 Y90.414
G1 Z0.200
G1 E0.80000 F2100.00000
G1 F1200
G1 X129.255 Y90.403 E0.01015
G1 X129.555 Y88.511 E0.06007
G1 X130.891 Y85.889 E0.09227
G1 X132.971 Y83.808 E0.09226
G1 X135.594 Y82.472 E0.09227
G1 X138.502 Y82.012 E0.09233
G1 X141.406 Y82.472 E0.09220
G1 X144.028 Y83.808 E0.09227
G1 X146.109 Y85.888 E0.09226
G1 X147.446 Y88.511 E0.09228
G1 X147.745 Y90.402 E0.06005
G1 X148.067 Y90.413 E0.01011
G1 X148.067 Y91.711 E0.04069
G1 X128.932 Y91.711 E0.59998
G1 X128.932 Y90.474 E0.03879
G1 F8640
G1 X129.255 Y90.403 E-0.07645
G1 X129.555 Y88.511 E-0.44237
G1 X130.029 Y87.580 E-0.24118
G1 E-0.04000 F2100.00000
G1 Z0.800 F10800.000
G1 X148.069 Y90.036
G1 Z0.200
G1 E0.80000 F2100.00000
G1 F1200
G1 X148.444 Y90.049 E0.01178
G1 X148.444 Y100.417 E0.32507
G1 X148.431 Y100.584 E0.00526
G1 X148.333 Y100.888 E0.01002
G1 X148.145 Y101.146 E0.00999
G1 X148.024 Y101.249 E0.00500
G1 X147.887 Y101.333 E0.00502
G1 X147.739 Y101.394 E0.00504
G1 X147.584 Y101.432 E0.00499
G1 X147.146 Y101.445 E0.01375
G1 X147.397 Y101.363 E0.00829
G1 X147.616 Y101.254 E0.00765
G1 X147.814 Y101.118 E0.00754
G1 X147.985 Y100.956 E0.00739
G1 X148.124 Y100.771 E0.00725
G1 X148.229 Y100.568 E0.00716
G1 X148.292 Y100.352 E0.00706
G1 X148.313 Y100.139 E0.00670
G1 X148.313 Y92.088 E0.25244
G1 X128.686 Y92.088 E0.61539
G1 X128.686 Y100.139 E0.25244
G1 X128.707 Y100.353 E0.00672
G1 X128.771 Y100.568 E0.00705
G1 X128.874 Y100.771 E0.00713
G1 X129.014 Y100.956 E0.00726
G1 X129.185 Y101.118 E0.00739
G1 X129.383 Y101.255 E0.00755
G1 X129.603 Y101.363 E0.00767
G1 X129.854 Y101.445 E0.00828
G1 X129.415 Y101.432 E0.01378
G1 X129.260 Y101.394 E0.00499
G1 X129.112 Y101.333 E0.00503
G1 X128.976 Y101.249 E0.00500
G1 X128.854 Y101.146 E0.00501
G1 X128.666 Y100.888 E0.01000
G1 X128.568 Y100.584 E0.01002
G1 X128.555 Y100.417 E0.00527
G1 X128.555 Y90.049 E0.32507
G1 X128.932 Y90.036 E0.01182
G1 X129.192 Y88.393 E0.05218
G1 X130.582 Y85.664 E0.09601
G1 X132.747 Y83.499 E0.09600
G1 X135.476 Y82.109 E0.09602
G1 X138.502 Y81.630 E0.09608
G1 X141.524 Y82.109 E0.09594
G1 X144.253 Y83.499 E0.09601
G1 X146.418 Y85.664 E0.09600
G1 X147.809 Y88.393 E0.09603
G1 X148.059 Y89.977 E0.05029
G1 X148.105 Y90.410 F10800.000
G1 X147.954 Y90.836
G1 F1200
G1 X139.588 Y82.470 E0.37562
G1 X140.230 Y82.572 E0.02063
G1 X147.346 Y89.688 E0.31949
G1 X147.244 Y89.047 E0.02062
G1 X140.871 Y82.674 E0.28613
G1 X141.318 Y82.745 E0.01435
G1 X141.653 Y82.915 E0.01193
G1 X147.347 Y88.609 E0.25566
G1 F8640
G1 X145.019 Y86.282 E-0.76000
G1 E-0.04000 F2100.00000
G1 Z0.800 F10800.000
G1 X146.831 Y87.553
G1 Z0.200
G1 E0.80000 F2100.00000
G1 F1200
G1 X142.365 Y83.087 E0.20051
G1 F8640
G1 X144.692 Y85.415 E-0.76000
G1 E-0.04000 F2100.00000
G1 Z0.800 F10800.000
G1 X143.465 Y83.648
G1 Z0.200
G1 E0.80000 F2100.00000
G1 F1200
G1 X146.270 Y86.452 E0.12590
G1 F8640
G1 X143.942 Y84.125 E-0.76000
G1 E-0.04000 F2100.00000
G1 Z0.800 F10800.000
G1 X147.954 Y91.376
G1 Z0.200
G1 E0.80000 F2100.00000
G1 F1200
G1 X138.946 Y82.368 E0.40443
G1 X138.502 Y82.298 E0.01427
G1 X138.359 Y82.321 E0.00462
G1 X147.466 Y91.428 E0.40889
G1 X146.926 Y91.428 E0.01714
G1 X137.892 Y82.395 E0.40558
G1 X137.426 Y82.468 E0.01498
G1 X146.386 Y91.428 E0.40227
G1 X145.846 Y91.428 E0.01714
G1 X136.960 Y82.542 E0.39895
G1 X136.494 Y82.616 E0.01498
G1 X145.306 Y91.428 E0.39564
G1 X144.766 Y91.428 E0.01714
G1 X136.028 Y82.690 E0.39232
G1 X135.682 Y82.745 E0.01111
G1 X135.590 Y82.792 E0.00329
G1 X144.226 Y91.428 E0.38775
G1 X143.686 Y91.428 E0.01714
G1 X135.232 Y82.974 E0.37957
G1 X134.874 Y83.156 E0.01275
G1 X143.146 Y91.428 E0.37139
G1 X142.606 Y91.428 E0.01714
G1 X134.516 Y83.338 E0.36321
G1 X134.159 Y83.521 E0.01275
G1 X142.066 Y91.428 E0.35503
G1 X141.526 Y91.428 E0.01714
G1 X133.801 Y83.703 E0.34685
G1 X133.443 Y83.885 E0.01275
G1 X140.986 Y91.428 E0.33867
G1 X140.446 Y91.428 E0.01714
G1 X133.099 Y84.080 E0.32989
G1 X132.829 Y84.350 E0.01212
G1 X139.907 Y91.428 E0.31777
G1 X139.367 Y91.428 E0.01714
G1 X132.559 Y84.620 E0.30565
G1 X132.289 Y84.890 E0.01212
G1 X138.827 Y91.428 E0.29353
G1 X138.287 Y91.428 E0.01714
G1 X132.019 Y85.160 E0.28141
G1 X131.749 Y85.430 E0.01212
G1 X137.747 Y91.428 E0.26929
G1 X137.207 Y91.428 E0.01714
G1 X131.479 Y85.700 E0.25716
G1 X131.209 Y85.970 E0.01212
G1 X136.667 Y91.428 E0.24504
G1 X136.127 Y91.428 E0.01714
G1 X130.999 Y86.300 E0.23024
G1 X130.816 Y86.658 E0.01275
G1 X135.587 Y91.428 E0.21418
G1 X135.047 Y91.428 E0.01714
G1 X130.634 Y87.015 E0.19812
G1 X130.452 Y87.373 E0.01275
G1 X134.507 Y91.428 E0.18206
G1 X133.967 Y91.428 E0.01714
G1 X130.270 Y87.731 E0.16600
G1 X130.088 Y88.089 E0.01275
G1 X133.427 Y91.428 E0.14993
G1 X132.887 Y91.428 E0.01714
G1 X129.905 Y88.446 E0.13387
G1 X129.828 Y88.599 E0.00544
G1 X129.785 Y88.866 E0.00858
G1 X132.347 Y91.428 E0.11502
G1 X131.807 Y91.428 E0.01714
G1 X129.711 Y89.332 E0.09410
G1 X129.637 Y89.798 E0.01498
G1 X131.267 Y91.428 E0.07318
G1 X130.727 Y91.428 E0.01714
G1 X129.564 Y90.264 E0.05225
G1 X129.498 Y90.678 E0.01329
G1 X129.439 Y90.680 E0.00188
G1 X130.187 Y91.428 E0.03360
G1 X129.647 Y91.428 E0.01714
G1 X129.045 Y90.826 E0.02705
G1 F8640
G1 X129.647 Y91.428 E-0.19674
G1 X130.187 Y91.428 E-0.12468
G1 X129.439 Y90.680 E-0.24441
G1 X129.498 Y90.678 E-0.01366
G1 X129.564 Y90.264 E-0.09663
G1 X129.820 Y90.521 E-0.08388
G1 E-0.04000 F2100.00000
G1 Z0.800 F10800.000
G1 X147.745 Y117.023
G1 Z0.200
G1 E0.80000 F2100.00000
G1 F1200
G1 X148.067 Y117.034 E0.01011
G1 X148.067 Y118.331 E0.04069
G1 X128.932 Y118.331 E0.59998
G1 X128.932 Y117.034 E0.04067
G1 X129.255 Y117.023 E0.01015
G1 X129.555 Y115.131 E0.06007
G1 X130.891 Y112.509 E0.09227
G1 X132.971 Y110.428 E0.09226
G1 X135.594 Y109.093 E0.09227
G1 X138.502 Y108.632 E0.09233
G1 X141.406 Y109.093 E0.09220
G1 X144.028 Y110.428 E0.09227
G1 X146.109 Y112.509 E0.09226
G1 X147.446 Y115.131 E0.09228
G1 X147.736 Y116.963 E0.05817
G1 X148.069 Y116.657 F10800.000
G1 F1200
G1 X148.444 Y116.669 E0.01178
G1 X148.444 Y127.037 E0.32507
G1 X148.431 Y127.204 E0.00526
G1 X148.333 Y127.509 E0.01002
G1 X148.145 Y127.766 E0.00999
G1 X148.024 Y127.870 E0.00500
G1 X147.887 Y127.953 E0.00502
G1 X147.739 Y128.015 E0.00504
G1 X147.584 Y128.052 E0.00499
G1 X147.146 Y128.065 E0.01375
G1 X147.397 Y127.983 E0.00829
G1 X147.616 Y127.875 E0.00765
G1 X147.814 Y127.738 E0.00754
G1 X147.985 Y127.576 E0.00739
G1 X148.124 Y127.392 E0.00725
G1 X148.229 Y127.189 E0.00716
G1 X148.292 Y126.973 E0.00706
G1 X148.313 Y126.760 E0.00670
G1 X148.313 Y118.708 E0.25244
G1 X128.686 Y118.708 E0.61539
G1 X128.686 Y126.760 E0.25244
G1 X128.707 Y126.973 E0.00672
G1 X128.771 Y127.189 E0.00705
G1 X128.874 Y127.391 E0.00713
G1 X129.014 Y127.576 E0.00726
G1 X129.185 Y127.738 E0.00739
G1 X129.383 Y127.875 E0.00755
G1 X129.603 Y127.983 E0.00767
G1 X129.854 Y128.065 E0.00828
G1 X129.415 Y128.052 E0.01378
G1 X129.260 Y128.015 E0.00499
G1 X129.112 Y127.953 E0.00503
G1 X128.976 Y127.870 E0.00500
G1 X128.854 Y127.766 E0.00501
G1 X128.666 Y127.508 E0.01000
G1 X128.568 Y127.204 E0.01002
G1 X128.555 Y127.037 E0.00527
G1 X128.555 Y116.670 E0.32507
G1 X128.932 Y116.657 E0.01182
G1 X129.192 Y115.013 E0.05218
G1 X130.582 Y112.285 E0.09601
G1 X132.747 Y110.120 E0.09600
G1 X135.476 Y108.730 E0.09602
G1 X138.502 Y108.250 E0.09608
G1 X141.524 Y108.730 E0.09594
G1 X144.253 Y110.119 E0.09601
G1 X146.418 Y112.284 E0.09600
G1 X147.809 Y115.013 E0.09603
G1 X148.059 Y116.597 E0.05029
G1 X148.105 Y117.030 F10800.000
G1 X147.954 Y117.457
G1 F1200
G1 X139.588 Y109.091 E0.37562
G1 X140.230 Y109.192 E0.02063
G1 X147.346 Y116.309 E0.31949
G1 X147.244 Y115.667 E0.02062
G1 X140.871 Y109.294 E0.28613
G1 X141.318 Y109.365 E0.01435
G1 X141.653 Y109.536 E0.01193
G1 X147.347 Y115.230 E0.25566
G1 F8640
G1 X145.019 Y112.902 E-0.76000
G1 E-0.04000 F2100.00000
G1 Z0.800 F10800.000
G1 X146.831 Y114.174
G1 Z0.200
G1 E0.80000 F2100.00000
G1 F1200
G1 X142.365 Y109.708 E0.20051
G1 F8640
G1 X144.692 Y112.035 E-0.76000
G1 E-0.04000 F2100.00000
G1 Z0.800 F10800.000
G1 X143.465 Y110.268
G1 Z0.200
G1 E0.80000 F2100.00000
G1 F1200
G1 X146.270 Y113.073 E0.12590
G1 F8640
G1 X143.942 Y110.745 E-0.76000
G1 E-0.04000 F2100.00000
G1 Z0.800 F10800.000
G1 X147.954 Y117.997
G1 Z0.200
G1 E0.80000 F2100.00000
G1 F1200
G1 X138.946 Y108.989 E0.40443
G1 X138.502 Y108.919 E0.01427
G1 X138.359 Y108.941 E0.00462
G1 X147.466 Y118.049 E0.40889
G1 X146.926 Y118.049 E0.01714
G1 X137.892 Y109.015 E0.40558
G1 X137.426 Y109.089 E0.01498
G1 X146.386 Y118.049 E0.40227
G1 X145.846 Y118.049 E0.01714
G1 X136.960 Y109.163 E0.39895
G1 X136.494 Y109.237 E0.01498
G1 X145.306 Y118.049 E0.39564
G1 X144.766 Y118.049 E0.01714
G1 X136.028 Y109.310 E0.39232
G1 X135.682 Y109.365 E0.01111
G1 X135.590 Y109.412 E0.00329
G1 X144.226 Y118.049 E0.38775
G1 X143.686 Y118.049 E0.01714
G1 X135.232 Y109.594 E0.37957
G1 X134.874 Y109.777 E0.01275
G1 X143.146 Y118.049 E0.37139
G1 X142.606 Y118.049 E0.01714
G1 X134.516 Y109.959 E0.36321
M73 Q1 S75
M73 P1 R75
G1 X134.159 Y110.141 E0.01275
G1 X142.066 Y118.049 E0.35503
G1 X141.526 Y118.049 E0.01714
G1 X133.801 Y110.323 E0.34685
G1 X133.443 Y110.505 E0.01275
G1 X140.986 Y118.049 E0.33867
G1 X140.446 Y118.049 E0.01714
G1 X133.099 Y110.701 E0.32989
G1 X132.829 Y110.971 E0.01212
G1 X139.907 Y118.049 E0.31777
G1 X139.367 Y118.049 E0.01714
G1 X132.559 Y111.241 E0.30565
G1 X132.289 Y111.511 E0.01212
G1 X138.827 Y118.049 E0.29353
G1 X138.287 Y118.049 E0.01714
G1 X132.019 Y111.781 E0.28141
G1 X131.749 Y112.051 E0.01212
G1 X137.747 Y118.049 E0.26929
G1 X137.207 Y118.049 E0.01714
G1 X131.479 Y112.321 E0.25716
G1 X131.209 Y112.591 E0.01212
G1 X136.667 Y118.049 E0.24504
G1 X136.127 Y118.049 E0.01714
G1 X130.999 Y112.920 E0.23024
G1 X130.816 Y113.278 E0.01275
G1 X135.587 Y118.049 E0.21418
G1 X135.047 Y118.049 E0.01714
G1 X130.634 Y113.636 E0.19812
G1 X130.452 Y113.994 E0.01275
G1 X134.507 Y118.049 E0.18206
G1 X133.967 Y118.049 E0.01714
G1 X130.270 Y114.351 E0.16600
G1 X130.088 Y114.709 E0.01275
G1 X133.427 Y118.049 E0.14993
G1 X132.887 Y118.049 E0.01714
G1 X129.905 Y115.067 E0.13387
G1 X129.828 Y115.220 E0.00544
G1 X129.785 Y115.487 E0.00858
G1 X132.347 Y118.049 E0.11502
G1 X131.807 Y118.049 E0.01714
G1 X129.711 Y115.953 E0.09410
G1 X129.637 Y116.419 E0.01498
G1 X131.267 Y118.049 E0.07318
G1 X130.727 Y118.049 E0.01714
G1 X129.564 Y116.885 E0.05225
G1 X129.498 Y117.298 E0.01329
G1 X129.439 Y117.300 E0.00188
G1 X130.187 Y118.049 E0.03360
G1 X129.647 Y118.049 E0.01714
G1 X129.045 Y117.446 E0.02705
G1 F8640
G1 X129.647 Y118.049 E-0.19674
G1 X130.187 Y118.049 E-0.12468
G1 X129.439 Y117.300 E-0.24441
G1 X129.498 Y117.298 E-0.01366
G1 X129.564 Y116.885 E-0.09663
G1 X129.820 Y117.142 E-0.08388
G1 E-0.04000 F2100.00000
G1 Z0.800 F10800.000
G1 X121.067 Y91.711
G1 Z0.200
G1 E0.80000 F2100.00000
G1 F1200
G1 X101.932 Y91.711 E0.59998
G1 X101.932 Y90.414 E0.04067
G1 X102.255 Y90.403 E0.01015
G1 X102.555 Y88.511 E0.06007
G1 X103.891 Y85.889 E0.09227
G1 X105.971 Y83.808 E0.09226
G1 X108.594 Y82.472 E0.09227
G1 X111.502 Y82.012 E0.09233
G1 X114.406 Y82.472 E0.09220
G1 X117.028 Y83.808 E0.09227
G1 X119.109 Y85.888 E0.09226
G1 X120.446 Y88.511 E0.09228
G1 X120.745 Y90.402 E0.06005
G1 X121.067 Y90.413 E0.01011
G1 X121.067 Y91.651 E0.03880
G1 F8640
G1 X117.776 Y91.661 E-0.76000
G1 E-0.04000 F2100.00000
G1 Z0.800 F10800.000
G1 X121.069 Y90.036
G1 Z0.200
G1 E0.80000 F2100.00000
G1 F1200
G1 X121.444 Y90.049 E0.01178
G1 X121.444 Y100.417 E0.32507
G1 X121.431 Y100.584 E0.00526
G1 X121.333 Y100.888 E0.01002
G1 X121.145 Y101.146 E0.00999
G1 X121.024 Y101.249 E0.00500
G1 X120.887 Y101.333 E0.00502
G1 X120.739 Y101.394 E0.00504
G1 X120.584 Y101.432 E0.00499
G1 X120.146 Y101.445 E0.01375
G1 X120.397 Y101.363 E0.00829
G1 X120.616 Y101.254 E0.00765
G1 X120.814 Y101.118 E0.00754
G1 X120.985 Y100.956 E0.00739
G1 X121.124 Y100.771 E0.00725
G1 X121.229 Y100.568 E0.00716
G1 X121.292 Y100.352 E0.00706
G1 X121.313 Y100.139 E0.00670
G1 X121.313 Y92.088 E0.25244
G1 X101.686 Y92.088 E0.61539
G1 X101.686 Y100.139 E0.25244
G1 X101.707 Y100.353 E0.00672
G1 X101.771 Y100.568 E0.00705
G1 X101.874 Y100.771 E0.00713
G1 X102.014 Y100.956 E0.00726
G1 X102.185 Y101.118 E0.00739
G1 X102.383 Y101.255 E0.00755
G1 X102.603 Y101.363 E0.00767
G1 X102.854 Y101.445 E0.00828
G1 X102.415 Y101.432 E0.01378
G1 X102.260 Y101.394 E0.00499
G1 X102.112 Y101.333 E0.00503
G1 X101.976 Y101.249 E0.00500
G1 X101.854 Y101.146 E0.00501
G1 X101.666 Y100.888 E0.01000
G1 X101.568 Y100.584 E0.01002
G1 X101.555 Y100.417 E0.00527
G1 X101.555 Y90.049 E0.32507
G1 X101.932 Y90.036 E0.01182
G1 X102.192 Y88.393 E0.05218
G1 X103.582 Y85.664 E0.09601
G1 X105.747 Y83.499 E0.09600
G1 X108.476 Y82.109 E0.09602
G1 X111.502 Y81.630 E0.09608
G1 X114.524 Y82.109 E0.09594
G1 X117.253 Y83.499 E0.09601
G1 X119.418 Y85.664 E0.09600
G1 X120.809 Y88.393 E0.09603
G1 X121.059 Y89.977 E0.05029
G1 X121.105 Y90.410 F10800.000
G1 X120.954 Y90.836
G1 F1200
G1 X112.588 Y82.470 E0.37562
G1 X113.230 Y82.572 E0.02063
G1 X120.346 Y89.688 E0.31949
G1 X120.244 Y89.047 E0.02062
G1 X113.871 Y82.674 E0.28613
G1 X114.318 Y82.745 E0.01435
G1 X114.653 Y82.915 E0.01193
G1 X120.347 Y88.609 E0.25566
G1 F8640
G1 X118.019 Y86.282 E-0.76000
G1 E-0.04000 F2100.00000
G1 Z0.800 F10800.000
G1 X119.831 Y87.553
G1 Z0.200
G1 E0.80000 F2100.00000
G1 F1200
G1 X115.365 Y83.087 E0.20051
G1 F8640
G1 X117.692 Y85.415 E-0.76000
G1 E-0.04000 F2100.00000
G1 Z0.800 F10800.000
G1 X116.465 Y83.648
G1 Z0.200
G1 E0.80000 F2100.00000
G1 F1200
G1 X119.270 Y86.452 E0.12590
G1 F8640
G1 X116.942 Y84.125 E-0.76000
G1 E-0.04000 F2100.00000
G1 Z0.800 F10800.000
G1 X120.954 Y91.376
G1 Z0.200
G1 E0.80000 F2100.00000
G1 F1200
G1 X111.946 Y82.368 E0.40443
G1 X111.502 Y82.298 E0.01427
